src/images/icons/filter-categories/filter-category-couchserfing.svg

<?xml version="1.0" encoding="UTF-8"?>
<svg width="40px" height="40px" viewBox="0 0 40 40" version="1.1" xmlns="http://www.w3.org/2000/svg" xmlns:xlink="http://www.w3.org/1999/xlink">
    <!-- Generator: Sketch 49.3 (51167) - http://www.bohemiancoding.com/sketch -->
    <title>couchserfing</title>
    <desc>Created with Sketch.</desc>
    <g id="Marvel" stroke="none" stroke-width="1" fill="none" fill-rule="evenodd">
        <g id="Facebid_Filters_Group_00" transform="translate(-563.000000, -421.000000)">
            <g id="Group-3-Copy" transform="translate(370.000000, 0.000000)">
                <g id="top" transform="translate(7.000000, 25.000000)">
                    <g id="Group" transform="translate(0.000000, 72.000000)">
                        <g id="Group-6">
                            <g id="Elements-/-Sort-/-Card-Copy-17" transform="translate(146.000000, 304.000000)">
                                <g id="Elements-/-Sort-/-Card-/-~Parts-/-Icon_01" transform="translate(40.000000, 20.000000)">
                                    <mask id="mask-2" fill="white">
                                        <path d="M38.7508197,23.9232787 C38.4911475,23.6052459 38.1652459,23.3606557 37.8032787,23.1947541 C37.5881967,19.772459 34.7429508,17.0511475 31.2668852,17.0511475 L22.4544262,17.0511475 C21.5022951,17.0511475 20.5488525,17.2537705 19.6767213,17.6386885 C18.8045902,17.2537705 17.8511475,17.0511475 16.8990164,17.0511475 L8.56065574,17.0511475 C5.14098361,17.0511475 2.32786885,19.6839344 2.03278689,23.0281967 C1.44655738,23.1691803 0.924590164,23.5042623 0.548196721,23.9980328 C0.0419672131,24.6629508 -0.121311475,25.5062295 0.0898360656,26.2681967 L1.60393443,33.7318033 L1.6295082,33.8216393 C1.96918033,34.7731148 2.87540984,35.412459 3.88590164,35.412459 L3.93836066,35.412459 L3.93836066,39.3468852 L7.03409836,39.3468852 L8.34557377,35.412459 L31.6622951,35.412459 L32.9737705,39.3468852 L36.0695082,39.3468852 L36.0695082,35.3947541 C37.0432787,35.3055738 37.8865574,34.6281967 38.1593443,33.6747541 L39.295082,26.1213115 C39.4537705,25.3403279 39.255082,24.5390164 38.7508197,23.9232787 Z M31.2668852,18.362623 C33.9396721,18.362623 36.1527869,20.3718033 36.4727869,22.9606557 C36.387541,22.9659016 36.3081967,22.9881967 36.2242623,22.9993443 C36.117377,23.0137705 36.0104918,23.0255738 35.9062295,23.0491803 C35.787541,23.0760656 35.6740984,23.1140984 35.56,23.1521311 C35.4616393,23.184918 35.3619672,23.2144262 35.2668852,23.255082 C35.1527869,23.3042623 35.0465574,23.3645902 34.9390164,23.4242623 C34.8531148,23.4721311 34.7659016,23.5147541 34.6839344,23.5691803 C34.5744262,23.6419672 34.4747541,23.7265574 34.3737705,23.8098361 C34.3055738,23.8668852 34.2334426,23.9180328 34.1691803,23.9796721 C34.0636066,24.0806557 33.9711475,24.1927869 33.8780328,24.3055738 C33.8308197,24.3632787 33.7777049,24.415082 33.7337705,24.4754098 C33.6334426,24.6131148 33.5488525,24.7619672 33.4681967,24.9127869 C33.4439344,24.9580328 33.4131148,24.9993443 33.3901639,25.0459016 C33.2977049,25.2380328 33.2229508,25.4393443 33.1639344,25.6485246 C33.1606557,25.6603279 33.1547541,25.6708197 33.1514754,25.682623 C33.0918033,25.9042623 33.0511475,26.1337705 33.0340984,26.3704918 L32.8563934,28.8544262 L20.332459,28.8544262 L20.332459,18.7940984 C21.0045902,18.5167213 21.7285246,18.362623 22.4544262,18.362623 L31.2668852,18.362623 Z M8.56065574,18.362623 L16.8983607,18.362623 C17.6242623,18.362623 18.3481967,18.5160656 19.0203279,18.7940984 L19.0203279,28.8544262 L6.69442623,28.8544262 L6.30229508,26.1121311 C6.27213115,25.9003279 6.22032787,25.6957377 6.15540984,25.4970492 C6.13377049,25.4321311 6.1042623,25.3711475 6.07934426,25.307541 C6.02885246,25.1777049 5.9757377,25.0498361 5.91147541,24.9278689 C5.87409836,24.8570492 5.83147541,24.7914754 5.7895082,24.7239344 C5.72327869,24.6163934 5.65508197,24.5121311 5.57836066,24.412459 C5.52852459,24.3468852 5.47540984,24.2845902 5.42098361,24.2229508 C5.33967213,24.1304918 5.25508197,24.0432787 5.1652459,23.9593443 C5.10557377,23.9036066 5.04590164,23.8485246 4.98229508,23.7960656 C4.88459016,23.7160656 4.78229508,23.6445902 4.67737705,23.5744262 C4.61245902,23.5311475 4.55016393,23.4865574 4.48262295,23.4472131 C4.36131148,23.3770492 4.23344262,23.3186885 4.10360656,23.2629508 C4.0452459,23.237377 3.9895082,23.2065574 3.92983607,23.1842623 C3.74163934,23.1140984 3.54754098,23.0570492 3.34688525,23.0183607 C3.64196721,20.4032787 5.86754098,18.362623 8.56065574,18.362623 Z M3.88590164,34.1003279 C3.44196721,34.1003279 3.04262295,33.8281967 2.87868852,33.4190164 L1.36459016,25.9632787 C1.25245902,25.5560656 1.33508197,25.1291803 1.59147541,24.7934426 C1.84786885,24.4570492 2.23606557,24.2642623 2.65901639,24.2642623 C3.8295082,24.2642623 4.83672131,25.1377049 5.00327869,26.2963934 L5.86163934,34.1003279 L3.93901639,34.1003279 L3.88590164,34.1003279 Z M6.08918033,38.0347541 L5.2504918,38.0347541 L5.2504918,35.4118033 L5.99344262,35.4118033 L6.96327869,35.4118033 L6.08918033,38.0347541 Z M8.78295082,34.1003279 L7.19344262,34.1003279 L6.84196721,30.1659016 L32.7822951,30.1659016 L32.6072131,34.1003279 L31.2255738,34.1003279 L8.78295082,34.1003279 Z M34.7586885,38.0347541 L33.92,38.0347541 L33.0459016,35.4118033 L33.8616393,35.4118033 L34.7586885,35.4118033 L34.7586885,38.0347541 Z M38.0039344,25.8931148 L36.8878689,33.3495082 C36.7436066,33.7934426 36.3252459,34.1009836 35.8557377,34.1009836 L33.9272131,34.1009836 L34.3436066,26.4642623 C34.4321311,25.2308197 35.4701639,24.264918 36.7068852,24.264918 C37.107541,24.264918 37.4832787,24.442623 37.7370492,24.7534426 C37.9895082,25.0636066 38.0898361,25.4668852 38.0039344,25.8931148 Z M9.37704918,26.0393443 C9.50491803,26.1672131 9.67278689,26.2314754 9.84065574,26.2314754 C10.0085246,26.2314754 10.1763934,26.1672131 10.3042623,26.0393443 L10.907541,25.4360656 C11.1914754,25.5757377 11.4983607,25.6544262 11.8078689,25.6544262 C12.117377,25.6544262 12.4242623,25.5757377 12.7081967,25.4360656 L13.3114754,26.0393443 C13.4393443,26.1672131 13.6072131,26.2314754 13.775082,26.2314754 C13.9429508,26.2314754 14.1108197,26.1672131 14.2386885,26.0393443 C14.495082,25.7829508 14.495082,25.3685246 14.2386885,25.1121311 L13.6354098,24.5088525 C13.9140984,23.9409836 13.9140984,23.2760656 13.6354098,22.707541 L14.2386885,22.1042623 C14.495082,21.8478689 14.495082,21.4334426 14.2386885,21.1770492 C13.9822951,20.9206557 13.5678689,20.9206557 13.3114754,21.1770492 L12.7081967,21.7803279 C12.1403279,21.5016393 11.4754098,21.5016393 10.9068852,21.7803279 L10.3036066,21.1770492 C10.0472131,20.9206557 9.63278689,20.9206557 9.37639344,21.1770492 C9.12,21.4334426 9.12,21.8478689 9.37639344,22.1042623 L9.97967213,22.707541 C9.70098361,23.2754098 9.70098361,23.9403279 9.97967213,24.5088525 L9.37639344,25.1121311 C9.12065574,25.3685246 9.12065574,25.7836066 9.37704918,26.0393443 Z M12.3278689,23.0885246 C12.615082,23.3757377 12.615082,23.8413115 12.3278689,24.1285246 C12.0406557,24.4157377 11.575082,24.4157377 11.2878689,24.1285246 C11.0006557,23.8413115 11.0006557,23.3757377 11.2878689,23.0885246 C11.4314754,22.944918 11.6196721,22.8734426 11.8078689,22.8734426 C11.9960656,22.8734426 12.1842623,22.9455738 12.3278689,23.0885246 Z M25.1147541,26.0393443 C25.242623,26.1672131 25.4104918,26.2314754 25.5783607,26.2314754 C25.7462295,26.2314754 25.9140984,26.1672131 26.0419672,26.0393443 L26.6452459,25.4360656 C26.9291803,25.5757377 27.2360656,25.6544262 27.5455738,25.6544262 C27.855082,25.6544262 28.1619672,25.5757377 28.4459016,25.4360656 L29.0491803,26.0393443 C29.1770492,26.1672131 29.344918,26.2314754 29.5127869,26.2314754 C29.6806557,26.2314754 29.8485246,26.1672131 29.9763934,26.0393443 C30.2327869,25.7829508 30.2327869,25.3685246 29.9763934,25.1121311 L29.3731148,24.5088525 C29.6518033,23.9409836 29.6518033,23.2760656 29.3731148,22.707541 L29.9763934,22.1042623 C30.2327869,21.8478689 30.2327869,21.4334426 29.9763934,21.1770492 C29.72,20.9206557 29.3055738,20.9206557 29.0491803,21.1770492 L28.4459016,21.7803279 C27.8780328,21.5016393 27.2131148,21.5016393 26.6445902,21.7803279 L26.0413115,21.1770492 C25.784918,20.9206557 25.3704918,20.9206557 25.1140984,21.1770492 C24.8577049,21.4334426 24.8577049,21.8478689 25.1140984,22.1042623 L25.717377,22.707541 C25.4386885,23.2754098 25.4386885,23.9403279 25.717377,24.5088525 L25.1140984,25.1121311 C24.8583607,25.3685246 24.8583607,25.7836066 25.1147541,26.0393443 Z M28.0655738,23.0885246 C28.3527869,23.3757377 28.3527869,23.8413115 28.0655738,24.1285246 C27.7783607,24.4157377 27.3127869,24.4157377 27.0255738,24.1285246 C26.7383607,23.8413115 26.7383607,23.3757377 27.0255738,23.0885246 C27.1691803,22.944918 27.357377,22.8734426 27.5455738,22.8734426 C27.7337705,22.8734426 27.9219672,22.9455738 28.0655738,23.0885246 Z M14.4308197,13.772459 L17.7095082,13.772459 L17.7095082,11.8052459 L32.7914754,11.8052459 L32.7914754,13.772459 L36.0701639,13.772459 L36.0701639,11.8052459 L38.037377,11.8052459 L38.037377,7.87081967 L37.3816393,7.87081967 L36.0701639,7.87081967 L36.0701639,1.31344262 L33.4472131,1.31344262 L33.4472131,0.00196721311 L29.5127869,0.00196721311 L29.5127869,1.96918033 L27.6504918,1.96918033 C27.3652459,1.96918033 27.1009836,2.11016393 26.9416393,2.34819672 L23.267541,7.85836066 C23.264918,7.86229508 23.2642623,7.86688525 23.2616393,7.87081967 L13.1193443,7.87081967 L12.4636066,7.87081967 L12.4636066,11.8052459 L14.4308197,11.8052459 L14.4308197,13.772459 Z M16.3980328,12.4609836 L15.7422951,12.4609836 L15.7422951,11.8052459 L16.3980328,11.8052459 L16.3980328,12.4609836 Z M34.7586885,12.4609836 L34.1029508,12.4609836 L34.1029508,11.8052459 L34.7586885,11.8052459 L34.7586885,12.4609836 Z M34.7586885,2.62491803 L34.7586885,7.87081967 L33.4472131,7.87081967 L33.4472131,2.62491803 L34.7586885,2.62491803 Z M30.8242623,1.31344262 L32.1357377,1.31344262 L32.1357377,7.87081967 L30.8242623,7.87081967 L30.8242623,1.31344262 Z M29.5127869,7.87081967 L27.4596721,7.87081967 L29.5127869,4.79147541 L29.5127869,7.87081967 Z M27.8963934,3.28065574 L28.9436066,3.28065574 L25.8832787,7.87081967 L24.8360656,7.87081967 L27.8963934,3.28065574 Z M13.775082,10.4937705 L13.775082,9.18229508 L23.9777049,9.18229508 L26.1291803,9.18229508 L29.5127869,9.18229508 L32.1357377,9.18229508 L33.4472131,9.18229508 L36.0701639,9.18229508 L36.7259016,9.18229508 L36.7259016,10.4937705 L36.0701639,10.4937705 L32.7914754,10.4937705 L17.7095082,10.4937705 L14.4308197,10.4937705 L13.775082,10.4937705 Z"></path>
                                    </mask>
                                    <path d="M38.7508197,23.9232787 C38.4911475,23.6052459 38.1652459,23.3606557 37.8032787,23.1947541 C37.5881967,19.772459 34.7429508,17.0511475 31.2668852,17.0511475 L22.4544262,17.0511475 C21.5022951,17.0511475 20.5488525,17.2537705 19.6767213,17.6386885 C18.8045902,17.2537705 17.8511475,17.0511475 16.8990164,17.0511475 L8.56065574,17.0511475 C5.14098361,17.0511475 2.32786885,19.6839344 2.03278689,23.0281967 C1.44655738,23.1691803 0.924590164,23.5042623 0.548196721,23.9980328 C0.0419672131,24.6629508 -0.121311475,25.5062295 0.0898360656,26.2681967 L1.60393443,33.7318033 L1.6295082,33.8216393 C1.96918033,34.7731148 2.87540984,35.412459 3.88590164,35.412459 L3.93836066,35.412459 L3.93836066,39.3468852 L7.03409836,39.3468852 L8.34557377,35.412459 L31.6622951,35.412459 L32.9737705,39.3468852 L36.0695082,39.3468852 L36.0695082,35.3947541 C37.0432787,35.3055738 37.8865574,34.6281967 38.1593443,33.6747541 L39.295082,26.1213115 C39.4537705,25.3403279 39.255082,24.5390164 38.7508197,23.9232787 Z M31.2668852,18.362623 C33.9396721,18.362623 36.1527869,20.3718033 36.4727869,22.9606557 C36.387541,22.9659016 36.3081967,22.9881967 36.2242623,22.9993443 C36.117377,23.0137705 36.0104918,23.0255738 35.9062295,23.0491803 C35.787541,23.0760656 35.6740984,23.1140984 35.56,23.1521311 C35.4616393,23.184918 35.3619672,23.2144262 35.2668852,23.255082 C35.1527869,23.3042623 35.0465574,23.3645902 34.9390164,23.4242623 C34.8531148,23.4721311 34.7659016,23.5147541 34.6839344,23.5691803 C34.5744262,23.6419672 34.4747541,23.7265574 34.3737705,23.8098361 C34.3055738,23.8668852 34.2334426,23.9180328 34.1691803,23.9796721 C34.0636066,24.0806557 33.9711475,24.1927869 33.8780328,24.3055738 C33.8308197,24.3632787 33.7777049,24.415082 33.7337705,24.4754098 C33.6334426,24.6131148 33.5488525,24.7619672 33.4681967,24.9127869 C33.4439344,24.9580328 33.4131148,24.9993443 33.3901639,25.0459016 C33.2977049,25.2380328 33.2229508,25.4393443 33.1639344,25.6485246 C33.1606557,25.6603279 33.1547541,25.6708197 33.1514754,25.682623 C33.0918033,25.9042623 33.0511475,26.1337705 33.0340984,26.3704918 L32.8563934,28.8544262 L20.332459,28.8544262 L20.332459,18.7940984 C21.0045902,18.5167213 21.7285246,18.362623 22.4544262,18.362623 L31.2668852,18.362623 Z M8.56065574,18.362623 L16.8983607,18.362623 C17.6242623,18.362623 18.3481967,18.5160656 19.0203279,18.7940984 L19.0203279,28.8544262 L6.69442623,28.8544262 L6.30229508,26.1121311 C6.27213115,25.9003279 6.22032787,25.6957377 6.15540984,25.4970492 C6.13377049,25.4321311 6.1042623,25.3711475 6.07934426,25.307541 C6.02885246,25.1777049 5.9757377,25.0498361 5.91147541,24.9278689 C5.87409836,24.8570492 5.83147541,24.7914754 5.7895082,24.7239344 C5.72327869,24.6163934 5.65508197,24.5121311 5.57836066,24.412459 C5.52852459,24.3468852 5.47540984,24.2845902 5.42098361,24.2229508 C5.33967213,24.1304918 5.25508197,24.0432787 5.1652459,23.9593443 C5.10557377,23.9036066 5.04590164,23.8485246 4.98229508,23.7960656 C4.88459016,23.7160656 4.78229508,23.6445902 4.67737705,23.5744262 C4.61245902,23.5311475 4.55016393,23.4865574 4.48262295,23.4472131 C4.36131148,23.3770492 4.23344262,23.3186885 4.10360656,23.2629508 C4.0452459,23.237377 3.9895082,23.2065574 3.92983607,23.1842623 C3.74163934,23.1140984 3.54754098,23.0570492 3.34688525,23.0183607 C3.64196721,20.4032787 5.86754098,18.362623 8.56065574,18.362623 Z M3.88590164,34.1003279 C3.44196721,34.1003279 3.04262295,33.8281967 2.87868852,33.4190164 L1.36459016,25.9632787 C1.25245902,25.5560656 1.33508197,25.1291803 1.59147541,24.7934426 C1.84786885,24.4570492 2.23606557,24.2642623 2.65901639,24.2642623 C3.8295082,24.2642623 4.83672131,25.1377049 5.00327869,26.2963934 L5.86163934,34.1003279 L3.93901639,34.1003279 L3.88590164,34.1003279 Z M6.08918033,38.0347541 L5.2504918,38.0347541 L5.2504918,35.4118033 L5.99344262,35.4118033 L6.96327869,35.4118033 L6.08918033,38.0347541 Z M8.78295082,34.1003279 L7.19344262,34.1003279 L6.84196721,30.1659016 L32.7822951,30.1659016 L32.6072131,34.1003279 L31.2255738,34.1003279 L8.78295082,34.1003279 Z M34.7586885,38.0347541 L33.92,38.0347541 L33.0459016,35.4118033 L33.8616393,35.4118033 L34.7586885,35.4118033 L34.7586885,38.0347541 Z M38.0039344,25.8931148 L36.8878689,33.3495082 C36.7436066,33.7934426 36.3252459,34.1009836 35.8557377,34.1009836 L33.9272131,34.1009836 L34.3436066,26.4642623 C34.4321311,25.2308197 35.4701639,24.264918 36.7068852,24.264918 C37.107541,24.264918 37.4832787,24.442623 37.7370492,24.7534426 C37.9895082,25.0636066 38.0898361,25.4668852 38.0039344,25.8931148 Z M9.37704918,26.0393443 C9.50491803,26.1672131 9.67278689,26.2314754 9.84065574,26.2314754 C10.0085246,26.2314754 10.1763934,26.1672131 10.3042623,26.0393443 L10.907541,25.4360656 C11.1914754,25.5757377 11.4983607,25.6544262 11.8078689,25.6544262 C12.117377,25.6544262 12.4242623,25.5757377 12.7081967,25.4360656 L13.3114754,26.0393443 C13.4393443,26.1672131 13.6072131,26.2314754 13.775082,26.2314754 C13.9429508,26.2314754 14.1108197,26.1672131 14.2386885,26.0393443 C14.495082,25.7829508 14.495082,25.3685246 14.2386885,25.1121311 L13.6354098,24.5088525 C13.9140984,23.9409836 13.9140984,23.2760656 13.6354098,22.707541 L14.2386885,22.1042623 C14.495082,21.8478689 14.495082,21.4334426 14.2386885,21.1770492 C13.9822951,20.9206557 13.5678689,20.9206557 13.3114754,21.1770492 L12.7081967,21.7803279 C12.1403279,21.5016393 11.4754098,21.5016393 10.9068852,21.7803279 L10.3036066,21.1770492 C10.0472131,20.9206557 9.63278689,20.9206557 9.37639344,21.1770492 C9.12,21.4334426 9.12,21.8478689 9.37639344,22.1042623 L9.97967213,22.707541 C9.70098361,23.2754098 9.70098361,23.9403279 9.97967213,24.5088525 L9.37639344,25.1121311 C9.12065574,25.3685246 9.12065574,25.7836066 9.37704918,26.0393443 Z M12.3278689,23.0885246 C12.615082,23.3757377 12.615082,23.8413115 12.3278689,24.1285246 C12.0406557,24.4157377 11.575082,24.4157377 11.2878689,24.1285246 C11.0006557,23.8413115 11.0006557,23.3757377 11.2878689,23.0885246 C11.4314754,22.944918 11.6196721,22.8734426 11.8078689,22.8734426 C11.9960656,22.8734426 12.1842623,22.9455738 12.3278689,23.0885246 Z M25.1147541,26.0393443 C25.242623,26.1672131 25.4104918,26.2314754 25.5783607,26.2314754 C25.7462295,26.2314754 25.9140984,26.1672131 26.0419672,26.0393443 L26.6452459,25.4360656 C26.9291803,25.5757377 27.2360656,25.6544262 27.5455738,25.6544262 C27.855082,25.6544262 28.1619672,25.5757377 28.4459016,25.4360656 L29.0491803,26.0393443 C29.1770492,26.1672131 29.344918,26.2314754 29.5127869,26.2314754 C29.6806557,26.2314754 29.8485246,26.1672131 29.9763934,26.0393443 C30.2327869,25.7829508 30.2327869,25.3685246 29.9763934,25.1121311 L29.3731148,24.5088525 C29.6518033,23.9409836 29.6518033,23.2760656 29.3731148,22.707541 L29.9763934,22.1042623 C30.2327869,21.8478689 30.2327869,21.4334426 29.9763934,21.1770492 C29.72,20.9206557 29.3055738,20.9206557 29.0491803,21.1770492 L28.4459016,21.7803279 C27.8780328,21.5016393 27.2131148,21.5016393 26.6445902,21.7803279 L26.0413115,21.1770492 C25.784918,20.9206557 25.3704918,20.9206557 25.1140984,21.1770492 C24.8577049,21.4334426 24.8577049,21.8478689 25.1140984,22.1042623 L25.717377,22.707541 C25.4386885,23.2754098 25.4386885,23.9403279 25.717377,24.5088525 L25.1140984,25.1121311 C24.8583607,25.3685246 24.8583607,25.7836066 25.1147541,26.0393443 Z M28.0655738,23.0885246 C28.3527869,23.3757377 28.3527869,23.8413115 28.0655738,24.1285246 C27.7783607,24.4157377 27.3127869,24.4157377 27.0255738,24.1285246 C26.7383607,23.8413115 26.7383607,23.3757377 27.0255738,23.0885246 C27.1691803,22.944918 27.357377,22.8734426 27.5455738,22.8734426 C27.7337705,22.8734426 27.9219672,22.9455738 28.0655738,23.0885246 Z M14.4308197,13.772459 L17.7095082,13.772459 L17.7095082,11.8052459 L32.7914754,11.8052459 L32.7914754,13.772459 L36.0701639,13.772459 L36.0701639,11.8052459 L38.037377,11.8052459 L38.037377,7.87081967 L37.3816393,7.87081967 L36.0701639,7.87081967 L36.0701639,1.31344262 L33.4472131,1.31344262 L33.4472131,0.00196721311 L29.5127869,0.00196721311 L29.5127869,1.96918033 L27.6504918,1.96918033 C27.3652459,1.96918033 27.1009836,2.11016393 26.9416393,2.34819672 L23.267541,7.85836066 C23.264918,7.86229508 23.2642623,7.86688525 23.2616393,7.87081967 L13.1193443,7.87081967 L12.4636066,7.87081967 L12.4636066,11.8052459 L14.4308197,11.8052459 L14.4308197,13.772459 Z M16.3980328,12.4609836 L15.7422951,12.4609836 L15.7422951,11.8052459 L16.3980328,11.8052459 L16.3980328,12.4609836 Z M34.7586885,12.4609836 L34.1029508,12.4609836 L34.1029508,11.8052459 L34.7586885,11.8052459 L34.7586885,12.4609836 Z M34.7586885,2.62491803 L34.7586885,7.87081967 L33.4472131,7.87081967 L33.4472131,2.62491803 L34.7586885,2.62491803 Z M30.8242623,1.31344262 L32.1357377,1.31344262 L32.1357377,7.87081967 L30.8242623,7.87081967 L30.8242623,1.31344262 Z M29.5127869,7.87081967 L27.4596721,7.87081967 L29.5127869,4.79147541 L29.5127869,7.87081967 Z M27.8963934,3.28065574 L28.9436066,3.28065574 L25.8832787,7.87081967 L24.8360656,7.87081967 L27.8963934,3.28065574 Z M13.775082,10.4937705 L13.775082,9.18229508 L23.9777049,9.18229508 L26.1291803,9.18229508 L29.5127869,9.18229508 L32.1357377,9.18229508 L33.4472131,9.18229508 L36.0701639,9.18229508 L36.7259016,9.18229508 L36.7259016,10.4937705 L36.0701639,10.4937705 L32.7914754,10.4937705 L17.7095082,10.4937705 L14.4308197,10.4937705 L13.775082,10.4937705 Z" fill="#000000" fill-rule="nonzero"></path>
                                </g>
                            </g>
                        </g>
                    </g>
                </g>
            </g>
        </g>
    </g>
</svg>

<svg width="40" height="40" viewBox="0 0 40 40" xmlns="http://www.w3.org/2000/svg">
    <title>
        couchserfing
    </title>
    <path d="M38.75 23.923a2.637 2.637 0 0 0-.947-.728c-.215-3.423-3.06-6.144-6.536-6.144h-8.813c-.952 0-1.905.203-2.777.588a6.908 6.908 0 0 0-2.778-.588H8.561c-3.42 0-6.233 2.633-6.528 5.977a2.633 2.633 0 0 0-1.485.97 2.61 2.61 0 0 0-.458 2.27l1.514 7.464.026.09a2.4 2.4 0 0 0 2.256 1.59h.052v3.935h3.096l1.312-3.935h23.316l1.312 3.935h3.096v-3.952a2.403 2.403 0 0 0 2.09-1.72l1.135-7.554a2.63 2.63 0 0 0-.544-2.198zm-7.483-5.56a5.253 5.253 0 0 1 5.206 4.598c-.085.005-.165.027-.249.038-.107.015-.214.027-.318.05-.118.027-.232.065-.346.103-.098.033-.198.062-.293.103-.114.05-.22.11-.328.17-.086.047-.173.09-.255.144-.11.073-.21.158-.31.24-.068.058-.14.109-.205.17-.105.102-.198.214-.291.327-.047.057-.1.11-.144.17a3.7 3.7 0 0 0-.266.437c-.024.045-.055.086-.078.133a3.71 3.71 0 0 0-.226.603c-.003.011-.01.022-.013.034-.06.221-.1.45-.117.687l-.178 2.484H20.332v-10.06a5.585 5.585 0 0 1 2.122-.431h8.813zm-22.706 0h8.337c.726 0 1.45.153 2.122.431v10.06H6.694l-.392-2.742a3.624 3.624 0 0 0-.147-.615c-.021-.065-.05-.126-.076-.19a3.644 3.644 0 0 0-.168-.38c-.037-.07-.08-.136-.121-.203a3.347 3.347 0 0 0-.369-.501 3.732 3.732 0 0 0-.744-.649c-.065-.043-.127-.087-.194-.127a3.548 3.548 0 0 0-.38-.184c-.058-.026-.113-.056-.173-.079a3.642 3.642 0 0 0-.583-.166 5.256 5.256 0 0 1 5.214-4.655zM3.886 34.1c-.444 0-.843-.272-1.007-.681l-1.514-7.456a1.331 1.331 0 0 1 .226-1.17c.257-.336.645-.529 1.068-.529a2.38 2.38 0 0 1 2.344 2.032l.859 7.804H3.886zm2.203 3.935H5.25v-2.623h1.713l-.874 2.623zM8.783 34.1h-1.59l-.351-3.934h25.94l-.175 3.934H8.783zm25.976 3.935h-.839l-.874-2.623h1.713v2.623zm3.245-12.142l-1.116 7.457a1.09 1.09 0 0 1-1.032.751h-1.929l.417-7.637a2.378 2.378 0 0 1 2.363-2.2c.4 0 .776.179 1.03.49.253.31.353.713.267 1.14zm-28.627.146a.654.654 0 0 0 .927 0l.604-.603c.283.14.59.218.9.218.31 0 .616-.078.9-.218l.603.603a.654.654 0 0 0 .928 0 .655.655 0 0 0 0-.927l-.604-.603a2.045 2.045 0 0 0 0-1.801l.604-.604a.655.655 0 1 0-.928-.927l-.603.603a2.045 2.045 0 0 0-1.801 0l-.603-.603a.655.655 0 1 0-.928.927l.604.604a2.045 2.045 0 0 0 0 1.8l-.604.604a.656.656 0 0 0 .001.927zm2.95-2.95a.735.735 0 1 1-1.039 1.04.735.735 0 0 1 1.04-1.04zm12.788 2.95a.654.654 0 0 0 .927 0l.603-.603c.284.14.591.218.9.218.31 0 .617-.078.9-.218l.604.603a.654.654 0 0 0 .927 0 .655.655 0 0 0 0-.927l-.603-.603a2.045 2.045 0 0 0 0-1.801l.603-.604a.655.655 0 1 0-.927-.927l-.603.603a2.045 2.045 0 0 0-1.801 0l-.604-.603a.655.655 0 1 0-.927.927l.603.604a2.045 2.045 0 0 0 0 1.8l-.603.604a.656.656 0 0 0 0 .927zm2.95-2.95a.735.735 0 1 1-1.04 1.04.735.735 0 0 1 1.04-1.04zm-13.634-9.317h3.279v-1.967H32.79v1.967h3.28v-1.967h1.966V7.871H36.07V1.313h-2.623V.002h-3.934v1.967H27.65a.85.85 0 0 0-.708.38l-3.674 5.51c-.003.003-.004.008-.006.012H12.464v3.934h1.967v1.967zm1.967-1.311h-.656v-.656h.656v.656zm18.36 0h-.655v-.656h.656v.656zm0-9.836V7.87h-1.31V2.625h1.31zm-3.934-1.312h1.312v6.558h-1.312V1.313zm-1.311 6.558H27.46l2.053-3.08v3.08zm-1.617-4.59h1.048l-3.06 4.59h-1.048l3.06-4.59zm-14.12 7.213V9.182h22.95v1.312H13.775z" fill="#000" fill-rule="nonzero"/>
</svg>
